!!!OTL: 163c. Vogelhochzeit.
!!!ARE: Europa, Mitteleuropa, Deutschland, Schlesien, Bunzlau; Hainau
!!!SCT: E0163
!!!TXL: @@DE
!!!YEM: Copyright 1995, estate of Helmut Schaffrath.
**kern	**text
*ICvox	*
*M2/4	*
*k[f#]	*
*G:	*
!LO:TX:a:t=Munter.	!
!LO:TX:a:t=Aus der Gegend von Bunʒlau u. Hainau.	!
{8b	1._Es
=1	=1
8dd/L	wollt
8bJ	ein
8dd	Vo-
8b	-gel
=2	=2
8cc/L	Hoch-
8aJ	-ʒeit
4cc}	machen
=3	=3
{8b	in
8b	dem
8dd	grü-
8b	-nen
=4	=4
8a/L	Wal-
8ddJ	.
8dd;}	-de.
{16d	Di-
16d	-di-
=5	=5
8g	-ral-
8g	-la-
8g	-la,
16b/	di-
16b/	-di-
=6	=6
8a	-ral-
8a	-la-
8a}	-la,
{16dd	di-
16cc	-di-
=7	=7
16bL	-ral-
16ccJ	.
8b	-la
16aL	ral-
16bJ	.
8a	-la
=8	=8
4g	la!
8r}	.
==	==
!!!AGN: erzaehlendes Volks - Lied, Sage, Tier - Maerchen, Ballade ?
!!!ONB: ESAC (Essen Associative Code) Database: ERK1
!!!AMT: simple duple
!!!AIN: vox
!!!EED: Helmut Schaffrath
!!!EEV: 1.0
!!!GTL: Thiersage und Pflanzenmaerchen
!!!URL-scan: https://rosdok.uni-rostock.de/mcrviewer/recordIdentifier/rosdok_ppn745146120/iview2/phys_0577.iview2?x=0&y=2192.643300422933&scale=0.6828302752574625&rotation=0&layout=singlePageLayout
!!!ENC: Anna Maria Matuszewska
!!!EEV: 2024/04/12
*-	*-
